X:24
T:Coire an Lachan
R:Reel
M:4/4
K:Ador
e2|"Am" A2ed e2A2|edea gedc|"G"BABd G2GA|"G"BcdB "Em"edBG|
"Am"A<Aed e2A2|EDEG A2 AG|"G"EFGE "Em"DCBd|"E"e2dB "Am"A2||B2|"C"c2 ef g2c2|agfa gedc|
"G"B2 AB GABc |dBGB gdBG|"C"c<cef g2c2|"C"edeg"Am"a2 ag|efge "G"dcBd|"E7"e2 dB "Am"A2|]
